X:1
T:Choix de chansons. Tome 1
T:Je sens le plus affreux
T:Je sens le plus affreux
T:Jean Benjamin de La Borde
C:Jean Benjamin de La Borde
Z:Jean Benjamin de La Borde
%%score 1 { ( 2 4 ) | ( 3 5 ) }
L:1/8
M:3/4
K:Eb
V:1 treble nm="Ténor" snm="T."
V:2 treble nm="Clavecin" snm="Cla."
V:4 treble 
V:3 bass 
V:5 bass 
V:1
"^Amoroso" c2 c2 c2 | d e{/g} f2 (ed) | (c2{/c} =B2) c c | d2 (ed) (cd) |{/d} e4{/d} c2 | %5
w: Je sens le|plus af- freux dé- *|gout * é- loi-|gné d'I- * sa- *|bel- le,|
 c2 c2 c2 | d e{/g} f2{/e} d2 | (c2{/c} =B2) g2 | d3 f d =B | c d (e2{/e} d2) | (d2 e) z g2 | %11
w: el- le me|con- so- lait de|tout- * et|rien ne me con-|so- le d'el- *|le,- _ et|
 d3 f d =B | c d (e2{/e} d2) | c6!fine! || B2{/c} B3 (A/G/) |{/G} A4 A2 | f2 B3 A |{/B} A4 G z | %18
w: rien ne me con-|so- le d'el- *|le.|Mon cœur fi- *|dè- le|en vain l'ap-|pel- le,|
 f2 B3 A |{/B} A4 G2 | (Be) B B B2 | (Af) A A A2 | (G3 A) B G |{/A} G4 F z | a2 f2 d2 | %25
w: en vain l'ap-|pel- le,|et * mon tour- ment|à * cha- que ins- tant|se * re- nou-|velle,- _|Dans un au-|
{/f} e (d/e/) B4 | a2 f3 d |{/f} e (d/e/) B4 | a2 f3 d | e2 A2 B2 | (cA) G2{/G} F2 | G4{/F} E2 | %32
w: tre sé- * jour|l'ob- jet de|mon a- * mour|ne son- ge|pas à ma|dou- * leur mor-|tel- le,|
 a2 f2 d2 |{/f} e (d/e/) B4 | a2 f2 d2 |{/f} e (d/e/) B4 | a2 f3 d | e2 A2 B2 | (ca/f/) e3 d | %39
w: Elle i- gno-|re l'ar- * deur,|qui de mon|fai- ble * cœur|vient pour ja-|mais de chas-|ser- _ _ le bon-|
 e6!D.C.! |] %40
w: heur.|
V:2
 z/ c/E/G/ z/ c/E/G/ z/ c/E/G/ | [Fd][Ge] [=Bg][Af] [Ge][Fd] | [Ec]2 [DF=B]2 z [EGc] | %3
 z [Fd] [Ge][Fd] [Ec][Fd] | [Ge]6 | z/ c/E/G/ z/ c/E/G/ z/ c/E/G/ | [Fd][Ge] [=Bg][Af] [Ge][Fd] | %7
 [Ec]2 [DF=B]2 z [EGc] | z d FA z [DF=B] | [EGc][FAd] [EGc]2 z [DF=B] | [DF=B]2 [EGc]2 z/ c/E/G/ | %11
 z/ d/F/A/ z/ d/F/A/ z/ =B/ D/F/ | [EGc][FAd] [EGc]2 [DF=B]2 | [EGc]6 || %14
 z/ e/ G/B/ z/ e/ G/B/ z/ e/ G/B/ | z/ f/ A/c/ z/ f/ A/c/ z/ f/ A/c/ | %16
 z/ f/ A/B/ z/ f/ A/B/ z/ f/ A/B/ | z/ f/ A/B/ z/ f/ A/B/ z/ e/ G/B/ | %18
 z/ f/ A/B/ z/ f/ A/B/ z/ f/ A/B/ | z/ f/ A/B/ z/ f/ A/B/ z/ e/ G/B/ | %20
 z/ E/[I:staff +1]B,/[I:staff -1]E/ z/ E/[I:staff +1]B,/[I:staff -1]E/ z/ E/[I:staff +1]B,/[I:staff -1]E/ | %21
 z/ D/[I:staff +1]A,/[I:staff -1]D/ z/ D/[I:staff +1]A,/[I:staff -1]D/ z/ D/[I:staff +1]A,/[I:staff -1]D/ | %22
 z/ E/[I:staff +1] G,/B,/[I:staff -1] z/ E/[I:staff +1] G,/B,/[I:staff -1] z/ E/[I:staff +1] G,/B,/ | %23
[I:staff -1] E4 D2 | z [DFB] z [DFB] z [DFB] | z [EGB] z [EGB] z [EGB] | z [DFB] z [DFB] z [DFB] | %27
 z [EGB] z [EGB] z [EGB] | z [DFB] z [DFB] z [DFB] | z [EGB] z [DFB] z [EGB] | %30
 z [FAc] z [EGB] z [DFA] | [EGB]6 | z/ B/D/F/ z/ B/D/F/ z/ B/D/F/ | z/ B/E/G/ z/ B/E/G/ z/ B/E/G/ | %34
 z/ B/D/F/ z/ B/D/F/ z/ B/D/F/ | z/ B/E/G/ z/ B/E/G/ z/ B/E/G/ | z/ B/D/F/ z/ B/D/F/ z/ B/D/F/ | %37
 z/ B/E/G/ z/ B/D/F/ z/ B/E/G/ | z/ c/F/A/ z/ B/E/G/ (5:4:2z/ !//![DFA]2 | [EGB]6 |] %40
V:3
 C2 C,2 C2 | F,6 | G,2 F,2 E,2 | F,2 G,2 G,,2 | C6 | C2 C,2 C2 | F,6 | G,2 F,2 E,2 | F,4 D,2 | %9
 E,F, G,2 G,,2 | C,2 C,2 E,2 | F,2 F,,2 D,2 | E,F, G,2 G,,2 | C,6 || E,2 E,2 E,2 | E,2 E,2 E,2 | %16
[I:staff -1] E2[I:staff +1] D,2[I:staff -1] E2 | E2[I:staff +1] E,2[I:staff -1] E2 | %18
 D2[I:staff +1] D,2[I:staff -1] D2 | E2[I:staff +1] E,2[I:staff -1] E2 |[I:staff +1] G,2 G,,2 G,2 | %21
 F,2 F,,2 F,2 | E,2 E,,2 E,2 | B,,6 | D, z F, z A, z | G, z E, z B,, z | D, z G, z A, z | %27
 G, z E, z B,, z | D, z F, z A, z | G, z F, z G, z | A, z B, z B,, z | E,6 | D,2 F,2 A,2 | %33
 G,2 E,2 B,,2 | D,2 F,2 A,2 | G,2 E,2 B,,2 | D,2 F,2 A,2 | G,2 F,2 G,2 | A,2 B,2 B,,2 | E,6 |] %40
V:4
 x6 | x6 | x6 | x6 | x6 | x6 | x6 | x6 | x6 | x6 | x6 | x6 | x6 | x6 || E2 E2 E2 | E2 E2 E2 | x6 | %17
 x6 | x6 | x6 | x6 | x6 | x6 | x6 | x6 | x6 | x6 | x6 | x6 | x6 | x6 | x6 | x6 | x6 | x6 | x6 | %36
 x6 | x6 | x6 | x6 |] %40
V:5
 x6 | x6 | x6 | x6 | x6 | x6 | x6 | x6 | x6 | x6 | x6 | x6 | x6 | x6 || x6 | x6 | x6 | x6 | x6 | %19
 x6 | x6 | x6 | x6 | G,4 F,2 | x6 | x6 | x6 | x6 | x6 | x6 | x6 | x6 | x6 | x6 | x6 | x6 | x6 | %37
 x6 | x6 | x6 |] %40

